X: 6
T: The Boys Of Ballinahinch
R: reel
M: 4/4
L: 1/8
K: Dmaj
|:g|fadf edBA|fadf g2ag|f2df edBc|dcBA GAd:|||g|faaf dcde|faaf g2ge|faaf afef|gfed Bcde||faaf dcde|faaf g2ga|agaf gfed| (3Bcdef g2|]


Tune 1348	Setting 1348

